svg/Outline/chatbubble-ellipses.svg

<svg viewBox="0 0 24 24" xmlns="http://www.w3.org/2000/svg" width="24" height="24"><path d="M7 10.53a1.5 1.5 0 1 1 0 3 1.5 1.5 0 0 1 0-3m5 0a1.5 1.5 0 1 1 0 3 1.5 1.5 0 0 1 0-3m5 0a1.5 1.5 0 1 1 0 3 1.5 1.5 0 0 1 0-3"/><path fill-rule="evenodd" d="M12 1a10.48 10.48 0 0 1 4.99 19.7A16.2 16.2 0 0 1 4.3 22.32c-.68-.2-1.03-.29-1.21-.47a1 1 0 0 1-.29-.61c-.02-.27.2-.76.63-1.74a6 6 0 0 0 .35-1.15q0-.19-.05-.36c-.05-.12-.14-.25-.3-.49A10.48 10.48 0 0 1 12 1m0 1.8a8.68 8.68 0 0 0-7.1 13.67c.1.14.32.42.47.77l.06.15.07.24q.1.37.1.75c-.01.42-.12.75-.16.9q-.15.5-.35.96l-.17.39q1.82.5 3.81.5h.5c2.5-.09 4.83-.8 6.85-1.99l.02-.02.03-.01A8.68 8.68 0 0 0 12 2.8" clip-rule="evenodd"/></svg>

<svg viewBox="0 0 24 24" xmlns="http://www.w3.org/2000/svg" width="24" height="24"><path d="M7 10.53a1.5 1.5 0 1 1 0 3 1.5 1.5 0 0 1 0-3m5 0a1.5 1.5 0 1 1 0 3 1.5 1.5 0 0 1 0-3m5 0a1.5 1.5 0 1 1 0 3 1.5 1.5 0 0 1 0-3"/><path fill-rule="evenodd" d="M12 1a10.48 10.48 0 0 1 4.99 19.7A16.2 16.2 0 0 1 4.3 22.32c-.68-.2-1.03-.29-1.21-.47a1 1 0 0 1-.29-.61c-.02-.27.2-.76.63-1.74a6 6 0 0 0 .35-1.15q0-.19-.05-.36c-.05-.12-.14-.25-.3-.49A10.48 10.48 0 0 1 12 1M12 2.8A8.68 8.68 0 0 0 4.9 16.47C5 16.61 5.22 16.89 5.37 17.24L5.5 17.63Q5.6 18 5.6 18.38C5.59 18.8 5.48 19.13 5.44 19.28Q5.29 19.78 5.09 20.24L4.92 20.63Q6.74 21.13 8.73 21.13L9.23 21.13C11.73 21.04 14.06 20.33 16.08 19.14L16.13 19.11A8.68 8.68 0 0 0 12 2.8" clip-rule="evenodd"/></svg>
